Numix-Light/16/status/indicator-keyboard-Ru-3.svg

<?xml version="1.0" encoding="UTF-8" standalone="no"?>
<svg
   xmlns:dc="http://purl.org/dc/elements/1.1/"
   xmlns:cc="http://creativecommons.org/ns#"
   xmlns:rdf="http://www.w3.org/1999/02/22-rdf-syntax-ns#"
   xmlns:svg="http://www.w3.org/2000/svg"
   xmlns="http://www.w3.org/2000/svg"
   xmlns:sodipodi="http://sodipodi.sourceforge.net/DTD/sodipodi-0.dtd"
   xmlns:inkscape="http://www.inkscape.org/namespaces/inkscape"
   viewBox="0 0 16 16"
   id="svg2"
   version="1.1"
   inkscape:version="0.91 r13725"
   sodipodi:docname="indicator-keyboard-Ru-3.svg">
  <metadata
     id="metadata14">
    <rdf:RDF>
      <cc:Work
         rdf:about="">
        <dc:format>image/svg+xml</dc:format>
        <dc:type
           rdf:resource="http://purl.org/dc/dcmitype/StillImage" />
      </cc:Work>
    </rdf:RDF>
  </metadata>
  <defs
     id="defs12" />
  <sodipodi:namedview
     pagecolor="#ffffff"
     bordercolor="#666666"
     borderopacity="1"
     objecttolerance="10"
     gridtolerance="10"
     guidetolerance="10"
     inkscape:pageopacity="0"
     inkscape:pageshadow="2"
     inkscape:window-width="640"
     inkscape:window-height="480"
     id="namedview10"
     showgrid="false"
     inkscape:zoom="14.75"
     inkscape:cx="8"
     inkscape:cy="8"
     inkscape:window-x="65"
     inkscape:window-y="24"
     inkscape:window-maximized="0"
     inkscape:current-layer="svg2" />
  <path
     style="fill:#353535;fill-opacity:1"
     d="M 1.5996094 0 C 0.71320937 2.9605947e-16 0 0.71320937 0 1.5996094 L 0 14.400391 C 2.9605947e-16 15.286791 0.71320937 16 1.5996094 16 L 14.400391 16 C 15.286791 16 16 15.286791 16 14.400391 L 16 1.5996094 C 16 0.71320937 15.286791 0 14.400391 0 L 1.5996094 0 z M 3.2265625 4.8046875 C 4.0845625 4.8046875 4.7301094 4.9670156 5.1621094 5.2910156 C 5.6001094 5.6150156 5.8183594 6.0944688 5.8183594 6.7304688 C 5.8183594 7.1984687 5.6952187 7.5678906 5.4492188 7.8378906 C 5.2032188 8.1078906 4.8785625 8.3038281 4.4765625 8.4238281 C 4.5725625 8.5438281 4.6957031 8.7042031 4.8457031 8.9082031 C 5.0017031 9.1122031 5.1602656 9.3379844 5.3222656 9.5839844 C 5.4842656 9.8239844 5.6447812 10.075844 5.8007812 10.339844 C 5.9567813 10.603844 6.0873125 10.855703 6.1953125 11.095703 L 5.5390625 11.095703 C 5.4130625 10.855703 5.275 10.616953 5.125 10.376953 C 4.981 10.136953 4.8317812 9.9055939 4.6757812 9.6835938 C 4.5257812 9.4555937 4.378375 9.2447344 4.234375 9.0527344 L 3.8554688 8.5488281 C 3.6634687 8.5668281 3.4712969 8.5761719 3.2792969 8.5761719 L 2.2714844 8.5761719 L 2.2714844 11.095703 L 1.6601562 11.095703 L 1.6601562 4.9765625 C 1.8761563 4.9165625 2.1280156 4.8736094 2.4160156 4.8496094 C 2.7100156 4.8196094 2.9805625 4.8046875 3.2265625 4.8046875 z M 3.2988281 5.3359375 C 3.0708281 5.3359375 2.8693125 5.3452813 2.6953125 5.3632812 C 2.5273125 5.3752812 2.3854844 5.3864375 2.2714844 5.3984375 L 2.2714844 8.0546875 L 3.1191406 8.0546875 C 3.4011406 8.0546875 3.6679219 8.0415781 3.9199219 8.0175781 C 4.1719219 7.9875781 4.3901719 7.9278906 4.5761719 7.8378906 C 4.7621719 7.7418906 4.9095781 7.6075938 5.0175781 7.4335938 C 5.1255781 7.2595938 5.1796875 7.0226562 5.1796875 6.7226562 C 5.1796875 6.4466563 5.1255781 6.2171094 5.0175781 6.0371094 C 4.9095781 5.8571094 4.76775 5.7172344 4.59375 5.6152344 C 4.41975 5.5072344 4.2182344 5.4344375 3.9902344 5.3984375 C 3.7682344 5.3564375 3.5388281 5.3359375 3.2988281 5.3359375 z M 7.125 6.4433594 L 7.7089844 6.4433594 L 7.7089844 8.8632812 C 7.7089844 9.1932813 7.73325 9.4731719 7.78125 9.7011719 C 7.82925 9.9291721 7.907625 10.115766 8.015625 10.259766 C 8.123625 10.397766 8.2616875 10.498453 8.4296875 10.564453 C 8.6036875 10.624453 8.8145469 10.654297 9.0605469 10.654297 C 9.3365469 10.654297 9.5752969 10.639375 9.7792969 10.609375 C 9.983297 10.579375 10.112016 10.553297 10.166016 10.529297 L 10.166016 6.4433594 L 10.751953 6.4433594 L 10.751953 10.933594 C 10.577953 10.981594 10.344781 11.035703 10.050781 11.095703 C 9.7567811 11.155703 9.3967031 11.185547 8.9707031 11.185547 C 8.6227031 11.185547 8.3316563 11.135203 8.0976562 11.033203 C 7.8636562 10.931203 7.6732969 10.787563 7.5292969 10.601562 C 7.3852969 10.415563 7.2808437 10.189781 7.2148438 9.9257812 C 7.1548438 9.6617812 7.125 9.3707344 7.125 9.0527344 L 7.125 6.4433594 z M 12.970703 8.7539062 C 13.173503 8.7539062 13.347888 8.7793781 13.492188 8.8300781 C 13.640387 8.8807781 13.761875 8.953275 13.859375 9.046875 C 13.956875 9.136575 14.029372 9.2463 14.076172 9.375 C 14.122972 9.4997999 14.146484 9.6350031 14.146484 9.7832031 C 14.146484 10.021103 14.081825 10.217041 13.953125 10.369141 C 13.828325 10.517341 13.66765 10.625106 13.46875 10.691406 C 13.57795 10.718706 13.681803 10.759859 13.783203 10.818359 C 13.888503 10.872959 13.982553 10.945456 14.064453 11.035156 C 14.146353 11.120956 14.212972 11.226762 14.263672 11.351562 C 14.314372 11.476362 14.339844 11.623316 14.339844 11.791016 C 14.339844 11.962616 14.308494 12.119372 14.246094 12.263672 C 14.187594 12.407972 14.097463 12.535331 13.976562 12.644531 C 13.859563 12.749831 13.710644 12.834084 13.527344 12.896484 C 13.344044 12.954984 13.128512 12.984375 12.882812 12.984375 C 12.754112 12.984375 12.634591 12.974578 12.525391 12.955078 C 12.420091 12.939478 12.327994 12.919884 12.246094 12.896484 C 12.164194 12.873084 12.093656 12.849572 12.035156 12.826172 C 11.980556 12.802772 11.939409 12.783178 11.912109 12.767578 L 12.011719 12.427734 C 12.035119 12.443334 12.074306 12.462928 12.128906 12.486328 C 12.183506 12.509728 12.248166 12.533241 12.322266 12.556641 C 12.400266 12.576141 12.484525 12.593775 12.578125 12.609375 C 12.675625 12.624975 12.781431 12.632813 12.894531 12.632812 C 13.265031 12.632812 13.531506 12.556397 13.691406 12.404297 C 13.851306 12.248297 13.929688 12.040597 13.929688 11.779297 C 13.929688 11.607697 13.896378 11.464663 13.830078 11.351562 C 13.767678 11.238462 13.681459 11.148331 13.568359 11.082031 C 13.459159 11.011831 13.329841 10.962847 13.181641 10.935547 C 13.037341 10.904347 12.88255 10.888672 12.71875 10.888672 L 12.660156 10.888672 L 12.660156 10.574219 L 12.794922 10.574219 C 12.900222 10.574219 13.007988 10.564422 13.117188 10.544922 C 13.230288 10.521522 13.332175 10.480375 13.421875 10.421875 C 13.515475 10.363375 13.591891 10.285 13.650391 10.1875 C 13.712791 10.09 13.742187 9.9646001 13.742188 9.8125 C 13.742188 9.6838 13.722588 9.5760281 13.679688 9.4863281 C 13.636788 9.3927281 13.578006 9.3182719 13.503906 9.2636719 C 13.433706 9.2090719 13.349453 9.1698844 13.251953 9.1464844 C 13.158353 9.1191844 13.058425 9.1054687 12.953125 9.1054688 C 12.742525 9.1054688 12.579891 9.1348594 12.462891 9.1933594 C 12.345891 9.2518594 12.249881 9.3067219 12.175781 9.3574219 L 12.011719 9.0585938 C 12.050719 9.0312937 12.099703 8.9999438 12.158203 8.9648438 C 12.220603 8.9297438 12.2931 8.8964344 12.375 8.8652344 C 12.4569 8.8340344 12.545078 8.8085625 12.642578 8.7890625 C 12.743978 8.7656625 12.853703 8.7539062 12.970703 8.7539062 z "
     id="path4" />
</svg>

<svg xmlns="http://www.w3.org/2000/svg" viewBox="0 0 16 16">
 <path d="m 1.6 0 c -0.886 0 -1.6 0.713 -1.6 1.6 l 0 12.801 c 0 0.886 0.713 1.6 1.6 1.6 l 12.801 0 c 0.886 0 1.6 -0.713 1.6 -1.6 l 0 -12.801 c 0 -0.886 -0.713 -1.6 -1.6 -1.6 l -12.801 0 z m 1.627 4.805 c 0.858 0 1.504 0.162 1.936 0.486 c 0.438 0.324 0.656 0.803 0.656 1.439 c 0 0.468 -0.123 0.837 -0.369 1.107 c -0.246 0.27 -0.571 0.466 -0.973 0.586 c 0.096 0.12 0.219 0.28 0.369 0.484 c 0.156 0.204 0.315 0.43 0.477 0.676 c 0.162 0.24 0.323 0.492 0.479 0.756 c 0.156 0.264 0.287 0.516 0.395 0.756 l -0.656 0 c -0.126 -0.24 -0.264 -0.479 -0.414 -0.719 c -0.144 -0.24 -0.293 -0.471 -0.449 -0.693 c -0.15 -0.228 -0.297 -0.439 -0.441 -0.631 l -0.379 -0.504 c -0.192 0.018 -0.384 0.027 -0.576 0.027 l -1.01 0 l 0 2.52 l -0.611 0 l 0 -6.119 c 0.216 -0.06 0.468 -0.103 0.756 -0.127 c 0.294 -0.03 0.565 -0.045 0.811 -0.045 z m 0.072 0.531 c -0.228 0 -0.43 0.009 -0.604 0.027 c -0.168 0.012 -0.31 0.023 -0.424 0.035 l 0 2.656 l 0.848 0 c 0.282 0 0.549 -0.013 0.801 -0.037 c 0.252 -0.03 0.47 -0.09 0.656 -0.18 c 0.186 -0.096 0.333 -0.23 0.441 -0.404 c 0.108 -0.174 0.162 -0.411 0.162 -0.711 c 0 -0.276 -0.054 -0.506 -0.162 -0.686 c -0.108 -0.18 -0.25 -0.32 -0.424 -0.422 c -0.174 -0.108 -0.376 -0.181 -0.604 -0.217 c -0.222 -0.042 -0.451 -0.063 -0.691 -0.063 z m 3.826 1.107 l 0.584 0 l 0 2.42 c 0 0.33 0.024 0.61 0.072 0.838 c 0.048 0.228 0.126 0.415 0.234 0.559 c 0.108 0.138 0.246 0.239 0.414 0.305 c 0.174 0.06 0.385 0.09 0.631 0.09 c 0.276 0 0.515 -0.015 0.719 -0.045 c 0.204 -0.03 0.333 -0.056 0.387 -0.08 l 0 -4.086 l 0.586 0 l 0 4.49 c -0.174 0.048 -0.407 0.102 -0.701 0.162 c -0.294 0.06 -0.654 0.09 -1.08 0.09 c -0.348 0 -0.639 -0.05 -0.873 -0.152 c -0.234 -0.102 -0.424 -0.246 -0.568 -0.432 c -0.144 -0.186 -0.248 -0.412 -0.314 -0.676 c -0.06 -0.264 -0.09 -0.555 -0.09 -0.873 l 0 -2.609 z m 5.846 2.311 c 0.203 0 0.377 0.025 0.521 0.076 c 0.148 0.051 0.27 0.123 0.367 0.217 c 0.098 0.09 0.17 0.199 0.217 0.328 c 0.047 0.125 0.07 0.26 0.07 0.408 c 0 0.238 -0.065 0.434 -0.193 0.586 c -0.125 0.148 -0.285 0.256 -0.484 0.322 c 0.109 0.027 0.213 0.068 0.314 0.127 c 0.105 0.055 0.199 0.127 0.281 0.217 c 0.082 0.086 0.149 0.192 0.199 0.316 c 0.051 0.125 0.076 0.272 0.076 0.439 c 0 0.172 -0.031 0.328 -0.094 0.473 c -0.058 0.144 -0.149 0.272 -0.27 0.381 c -0.117 0.105 -0.266 0.19 -0.449 0.252 c -0.183 0.059 -0.399 0.088 -0.645 0.088 c -0.129 0 -0.248 -0.01 -0.357 -0.029 c -0.105 -0.016 -0.197 -0.035 -0.279 -0.059 c -0.082 -0.023 -0.152 -0.047 -0.211 -0.07 c -0.055 -0.023 -0.096 -0.043 -0.123 -0.059 l 0.1 -0.34 c 0.023 0.016 0.063 0.035 0.117 0.059 c 0.055 0.023 0.119 0.047 0.193 0.07 c 0.078 0.019 0.162 0.037 0.256 0.053 c 0.098 0.016 0.203 0.023 0.316 0.023 c 0.37 0 0.637 -0.076 0.797 -0.229 c 0.16 -0.156 0.238 -0.364 0.238 -0.625 c 0 -0.172 -0.033 -0.315 -0.1 -0.428 c -0.062 -0.113 -0.149 -0.203 -0.262 -0.27 c -0.109 -0.07 -0.239 -0.119 -0.387 -0.146 c -0.144 -0.031 -0.299 -0.047 -0.463 -0.047 l -0.059 0 l 0 -0.314 l 0.135 0 c 0.105 0 0.213 -0.01 0.322 -0.029 c 0.113 -0.023 0.215 -0.065 0.305 -0.123 c 0.094 -0.059 0.17 -0.137 0.229 -0.234 c 0.062 -0.098 0.092 -0.223 0.092 -0.375 c 0 -0.129 -0.02 -0.236 -0.063 -0.326 c -0.043 -0.094 -0.102 -0.168 -0.176 -0.223 c -0.07 -0.055 -0.154 -0.094 -0.252 -0.117 c -0.094 -0.027 -0.194 -0.041 -0.299 -0.041 c -0.211 0 -0.373 0.029 -0.49 0.088 c -0.117 0.059 -0.213 0.113 -0.287 0.164 l -0.164 -0.299 c 0.039 -0.027 0.088 -0.059 0.146 -0.094 c 0.062 -0.035 0.135 -0.068 0.217 -0.1 c 0.082 -0.031 0.17 -0.057 0.268 -0.076 c 0.101 -0.023 0.211 -0.035 0.328 -0.035 z" style="fill:#353535;fill-opacity:1"/>
</svg>
